public/img/homeAbout/trainer.svg

<svg xmlns="http://www.w3.org/2000/svg" width="73" height="72" viewBox="0 0 73 72" fill="none">
    <path d="M52.0305 24.0764V28.0028C52.0305 33.5715 46.8165 40.5631 40.4455 42.9268C37.6451 43.9632 35.5348 43.9632 32.7343 42.9188C26.3714 40.547 21.1694 33.5633 21.1694 28.0028V24.0366" fill="white"/>
    <path d="M52.0305 24.0764V28.0028C52.0305 33.5715 46.8165 40.5631 40.4455 42.9268C37.6451 43.9632 35.5348 43.9632 32.7343 42.9188C26.3714 40.547 21.1694 33.5633 21.1694 28.0028V24.0366" stroke="#AAA8B8" stroke-width="2" stroke-miterlimit="10" stroke-linecap="round" stroke-linejoin="round"/>
    <path d="M25.9566 38.2884L22.1987 44.2118L31.8887 53.1445L36.6001 43.7014L41.3114 53.1445L51.0015 44.2118L47.2435 38.2884" stroke="#AAA8B8" stroke-width="2" stroke-miterlimit="10" stroke-linecap="round" stroke-linejoin="round"/>
    <path d="M22.1985 44.2136C7.02736 48.6978 6.01416 54.5454 6.01416 70.5938H67.1859C67.1859 66.2089 67.1101 62.5855 66.6911 59.5401C66.6911 59.5401 65.6972 55.7053 64.5005 53.4999C63.3694 51.4153 60.8826 48.6221 60.8826 48.6221C58.5491 46.9001 55.3575 45.501 51.0014 44.2136" stroke="#AAA8B8" stroke-width="2" stroke-miterlimit="10" stroke-linecap="round" stroke-linejoin="round"/>
    <path d="M52.0906 18.2823C43.5455 9.74809 29.6947 9.74809 21.1498 18.2823C19.5699 19.8608 19.5699 22.4397 21.1498 24.0184C22.7294 25.5928 25.3104 25.5928 26.8863 24.0184C32.2639 18.645 40.9764 18.645 46.3539 24.0184C47.9298 25.5928 50.5108 25.5928 52.0906 24.0184C53.6663 22.4397 53.6663 19.8608 52.0906 18.2823Z" fill="white" stroke="#AAA8B8" stroke-width="2" stroke-miterlimit="10" stroke-linecap="round" stroke-linejoin="round"/>
    <path d="M52.0902 18.2852V16.8661C52.0902 8.36367 45.1289 1.40782 36.6197 1.40782C28.1106 1.40782 21.1494 8.36367 21.1494 16.8661V18.2852" fill="white"/>
    <path d="M52.0902 18.2852V16.8661C52.0902 8.36367 45.1289 1.40782 36.6197 1.40782C28.1106 1.40782 21.1494 8.36367 21.1494 16.8661V18.2852" stroke="#AAA8B8" stroke-width="2" stroke-miterlimit="10" stroke-linecap="round" stroke-linejoin="round"/>
    <path d="M41.048 70.5938L45.1091 66.3565C45.6875 65.7546 45.6636 64.79 45.0612 64.2159L38.4988 57.9339C37.8965 57.3558 36.9311 57.3757 36.3567 57.9776L33.1252 61.3499C32.5508 61.9518 32.5708 62.9126 33.1732 63.4904L40.5733 70.5938" fill="white"/>
    <path d="M41.048 70.5938L45.1091 66.3565C45.6875 65.7546 45.6636 64.79 45.0612 64.2159L38.4988 57.9339C37.8965 57.3558 36.9311 57.3757 36.3567 57.9776L33.1252 61.3499C32.5508 61.9518 32.5708 62.9126 33.1732 63.4904L40.5733 70.5938" stroke="#AAA8B8" stroke-width="2" stroke-miterlimit="10" stroke-linecap="round" stroke-linejoin="round"/>
    <path d="M17.8462 45.6915C18.999 53.4366 26.6186 58.475 34.1264 60.3047L17.8462 45.6915Z" fill="white"/>
    <path d="M17.8462 45.6915C18.999 53.4366 26.6186 58.475 34.1264 60.3047" stroke="#AAA8B8" stroke-width="2" stroke-miterlimit="10" stroke-linecap="round" stroke-linejoin="round"/>
    <path d="M15.9556 64.1641H25.2426H15.9556Z" fill="white"/>
    <path d="M15.9556 64.1641H25.2426" stroke="#AAA8B8" stroke-width="2" stroke-miterlimit="10" stroke-linecap="round" stroke-linejoin="round"/>
    <path d="M55.3578 45.6917C54.2768 52.9265 47.5548 57.8016 40.5576 59.9023L55.3578 45.6917Z" fill="white"/>
    <path d="M55.3578 45.6917C54.2768 52.9265 47.5548 57.8016 40.5576 59.9023" stroke="#AAA8B8" stroke-width="2" stroke-miterlimit="10" stroke-linecap="round" stroke-linejoin="round"/>
</svg>

<?xml version="1.0" encoding="utf-8"?>
<!-- Generator: Adobe Illustrator 27.2.0, SVG Export Plug-In . SVG Version: 6.00 Build 0)  -->
<svg version="1.1" id="Слой_1" xmlns="http://www.w3.org/2000/svg" xmlns:xlink="http://www.w3.org/1999/xlink" x="0px" y="0px"
	 viewBox="0 0 73 72" style="enable-background:new 0 0 73 72;" xml:space="preserve">
<style type="text/css">
	.st0{fill:none;}
	.st1{fill:none;stroke:#AAA8B8;stroke-width:2;stroke-linecap:round;stroke-linejoin:round;stroke-miterlimit:10;}
</style>
<path class="st0" d="M52,24.1V28c0,5.6-5.2,12.6-11.6,14.9c-2.8,1-4.9,1-7.7,0c-6.4-2.4-11.6-9.4-11.6-14.9v-4"/>
<path class="st1" d="M52,24.1V28c0,5.6-5.2,12.6-11.6,14.9c-2.8,1-4.9,1-7.7,0c-6.4-2.4-11.6-9.4-11.6-14.9v-4"/>
<path class="st1" d="M26,38.3l-3.8,5.9l9.7,8.9l4.7-9.4l4.7,9.4l9.7-8.9l-3.8-5.9"/>
<path class="st1" d="M22.2,44.2C7,48.7,6,54.5,6,70.6h61.2c0-4.4-0.1-8-0.5-11.1c0,0-1-3.8-2.2-6c-1.1-2.1-3.6-4.9-3.6-4.9
	c-2.3-1.7-5.5-3.1-9.9-4.4"/>
<path class="st1" d="M52.1,18.3c-8.5-8.5-22.4-8.5-30.9,0c-1.6,1.6-1.6,4.2,0,5.7c1.6,1.6,4.2,1.6,5.7,0c5.4-5.4,14.1-5.4,19.5,0
	c1.6,1.6,4.2,1.6,5.7,0C53.7,22.4,53.7,19.9,52.1,18.3z"/>
<path class="st0" d="M52.1,18.3v-1.4c0-8.5-7-15.5-15.5-15.5c-8.5,0-15.5,7-15.5,15.5v1.4"/>
<path class="st1" d="M52.1,18.3v-1.4c0-8.5-7-15.5-15.5-15.5c-8.5,0-15.5,7-15.5,15.5v1.4"/>
<path class="st0" d="M41,70.6l4.1-4.2c0.6-0.6,0.6-1.6,0-2.1l-6.6-6.3c-0.6-0.6-1.6-0.6-2.1,0l-3.2,3.4c-0.6,0.6-0.6,1.6,0,2.1
	l7.4,7.1"/>
<path class="st1" d="M41,70.6l4.1-4.2c0.6-0.6,0.6-1.6,0-2.1l-6.6-6.3c-0.6-0.6-1.6-0.6-2.1,0l-3.2,3.4c-0.6,0.6-0.6,1.6,0,2.1
	l7.4,7.1"/>
<path class="st0" d="M17.8,45.7c1.2,7.7,8.8,12.8,16.3,14.6L17.8,45.7z"/>
<path class="st1" d="M17.8,45.7c1.2,7.7,8.8,12.8,16.3,14.6"/>
<path class="st0" d="M16,64.2h9.3H16z"/>
<path class="st1" d="M16,64.2h9.3"/>
<path class="st0" d="M55.4,45.7c-1.1,7.2-7.8,12.1-14.8,14.2L55.4,45.7z"/>
<path class="st1" d="M55.4,45.7c-1.1,7.2-7.8,12.1-14.8,14.2"/>
</svg>
